X: 08108
T: SUE WEAVER'S JIG
C: Bob McQuillen 17 Mar 91
B: Bob's Note Book 8 #108
%R: jig
Z: 2021 John Chambers <jc:trillian.mit.edu>
M: 6/8
L: 1/8
K: G
e \
| dBG GBG | EAG FED | dBG GBd | eag fga |\
| bgb age | dBG AFD | GBd cAF | AGG G2 :|
|: e \
| dBd gfg | efg dBG | GBd gfg | eag fed |\
| gfg bag | efg age | deg fef | agg g2 :|
%%begintext align
%% Sue plays piano over at Nelson and
%% she loves to dance, too, so it
%% seemed like a good idea to write
%% her a tune. Don't you agree?
%%endtext

%%sep 1 1 500

%%sep 1 1 500

